symbolic/64x64/apps/enpass.svg

<svg xmlns="http://www.w3.org/2000/svg" width="64" height="64" version="1">
 <rect style="opacity:0.2" width="57" height="57" x="-61" y="-60" rx="28.5" ry="28.5" transform="matrix(0,-1,-1,0,0,0)"/>
 <rect style="fill:#124aa0" width="57" height="57" x="-60" y="-60" rx="28.5" ry="28.5" transform="matrix(0,-1,-1,0,0,0)"/>
 <path style="opacity:0.2" d="m 20.537109,19 c -3.036361,0 -5.99155,2.476706 -5.478515,5.455078 l 3.287109,19.089844 C 18.85874,46.523293 20.789812,49 23.826172,49 h 15.347656 c 3.03636,0 4.967433,-2.476707 5.480469,-5.455078 L 47.941406,24.455078 C 48.454442,21.476706 45.499254,19 42.462891,19 Z M 31.5,26 a 5.5,5.5 0 0 1 5.5,5.5 5.5,5.5 0 0 1 -3,4.898438 V 41.5 c 0,0.831 -0.669,1.5 -1.5,1.5 h -2 C 29.669,43 29,42.331 29,41.5 V 36.392578 A 5.5,5.5 0 0 1 26,31.5 5.5,5.5 0 0 1 31.5,26 Z"/>
 <path style="fill:#ffffff" d="M 20.537109 18 C 17.500748 18 14.545559 20.476706 15.058594 23.455078 L 18.345703 42.544922 C 18.85874 45.523293 20.789812 48 23.826172 48 L 39.173828 48 C 42.210188 48 44.141261 45.523293 44.654297 42.544922 L 47.941406 23.455078 C 48.454442 20.476706 45.499254 18 42.462891 18 L 20.537109 18 z M 31.5 25 A 5.5 5.5 0 0 1 37 30.5 A 5.5 5.5 0 0 1 34 35.398438 L 34 40.5 C 34 41.331 33.331 42 32.5 42 L 30.5 42 C 29.669 42 29 41.331 29 40.5 L 29 35.392578 A 5.5 5.5 0 0 1 26 30.5 A 5.5 5.5 0 0 1 31.5 25 z"/>
 <path style="fill:#ffffff;opacity:0.1" d="M 31.5 3 C 15.711 3 3 15.711 3 31.5 C 3 31.667737 3.0088611 31.832969 3.0117188 32 C 3.2778493 16.444518 15.878737 4 31.5 4 C 47.121263 4 59.722151 16.444518 59.988281 32 C 59.991139 31.832969 60 31.667737 60 31.5 C 60 15.711 47.289 3 31.5 3 z"/>
</svg>

<svg xmlns="http://www.w3.org/2000/svg" width="64" height="64" version="1"><rect style="opacity:.2" width="57" height="57" x="-61" y="-60" rx="28.5" ry="28.5" transform="matrix(0 -1 -1 0 0 0)"/><rect style="fill:#124aa0" width="57" height="57" x="-60" y="-60" rx="28.5" ry="28.5" transform="matrix(0 -1 -1 0 0 0)"/><path style="opacity:.2" d="M20.537 19c-3.036 0-5.991 2.477-5.478 5.455l3.287 19.09C18.859 46.523 20.79 49 23.826 49h15.348c3.036 0 4.967-2.477 5.48-5.455l3.287-19.09C48.454 21.477 45.5 19 42.463 19zM31.5 26a5.5 5.5 0 0 1 5.5 5.5 5.5 5.5 0 0 1-3 4.898V41.5c0 .831-.669 1.5-1.5 1.5h-2c-.831 0-1.5-.669-1.5-1.5v-5.107a5.5 5.5 0 0 1-3-4.893 5.5 5.5 0 0 1 5.5-5.5z"/><path style="fill:#fff" d="M20.537 18c-3.036 0-5.991 2.477-5.478 5.455l3.287 19.09C18.859 45.523 20.79 48 23.826 48h15.348c3.036 0 4.967-2.477 5.48-5.455l3.287-19.09C48.454 20.477 45.5 18 42.463 18H20.537zM31.5 25a5.5 5.5 0 0 1 5.5 5.5 5.5 5.5 0 0 1-3 4.898V40.5c0 .831-.669 1.5-1.5 1.5h-2c-.831 0-1.5-.669-1.5-1.5v-5.107a5.5 5.5 0 0 1-3-4.893 5.5 5.5 0 0 1 5.5-5.5z"/><path style="fill:#fff;opacity:.1" d="M31.5 3A28.438 28.438 0 0 0 3 31.5c0 .168.009.333.012.5C3.278 16.445 15.879 4 31.5 4c15.621 0 28.222 12.445 28.488 28 .003-.167.012-.332.012-.5A28.438 28.438 0 0 0 31.5 3z"/></svg>
